src/assets/duotone/Timer.svg

<svg width="24" height="24" viewBox="0 0 24 24"  xmlns="http://www.w3.org/2000/svg">
<path opacity="0.4" d="M18.35 19.68C17.8 21.09 16.46 22 14.95 22H9.04998C7.52998 22 6.19998 21.09 5.64998 19.68C5.09998 18.26 5.47998 16.69 6.59998 15.67L10.65 12H13.36L17.4 15.67C18.52 16.69 18.89 18.26 18.35 19.68Z" />
<path d="M13.82 18.1403H10.18C9.8 18.1403 9.5 17.8303 9.5 17.4603C9.5 17.0803 9.81 16.7803 10.18 16.7803H13.82C14.2 16.7803 14.5 17.0903 14.5 17.4603C14.5 17.8303 14.19 18.1403 13.82 18.1403Z" />
<path d="M18.3502 4.32C17.8002 2.91 16.4602 2 14.9502 2H9.05016C7.54016 2 6.20016 2.91 5.65016 4.32C5.11016 5.74 5.48016 7.31 6.61016 8.33L10.6502 12H13.3602L17.4002 8.33C18.5202 7.31 18.8902 5.74 18.3502 4.32ZM13.8202 7.23H10.1802C9.80016 7.23 9.50016 6.92 9.50016 6.55C9.50016 6.18 9.81016 5.87 10.1802 5.87H13.8202C14.2002 5.87 14.5002 6.18 14.5002 6.55C14.5002 6.92 14.1902 7.23 13.8202 7.23Z" />
</svg>

<?xml version="1.0" encoding="UTF-8"?>
<svg width="24" height="24" viewBox="0 0 24 24" xmlns="http://www.w3.org/2000/svg">
 <path d="m18.35 19.68c-0.55 1.41-1.89 2.32-3.4 2.32h-5.9c-1.52 0-2.85-0.91-3.4-2.32-0.55-1.42-0.17-2.99 0.95-4.01l4.05-3.67h2.71l4.04 3.67c1.12 1.02 1.49 2.59 0.95 4.01z" opacity=".4"/>
 <path d="m13.82 18.14h-3.64c-0.38 0-0.68-0.31-0.68-0.68 0-0.38 0.31-0.68 0.68-0.68h3.64c0.38 0 0.68 0.31 0.68 0.68s-0.31 0.68-0.68 0.68z"/>
 <path d="m18.35 4.32c-0.55-1.41-1.89-2.32-3.4-2.32h-5.9c-1.51 0-2.85 0.91-3.4 2.32-0.54 1.42-0.17 2.99 0.96 4.01l4.04 3.67h2.71l4.04-3.67c1.12-1.02 1.49-2.59 0.95-4.01zm-4.53 2.91h-3.64c-0.38004 0-0.68004-0.31-0.68004-0.68s0.31-0.68 0.68004-0.68h3.64c0.38 0 0.68 0.31 0.68 0.68s-0.31 0.68-0.68 0.68z"/>
</svg>
